X: 80
T:Sara's Dance
M:4/4
L:1/8
Q:80
S:Transcribed from Andy Statman version by S.C.
R:Reel
K:D
DE|:"D"F2 A2A2Ad|(3BdB A2 F2 FF|{=F}F2FF(3EFED2|"G"B,2B,B, B,2DE|!
"D"F2A2A2 Ad|(3BdB A2 F2 FF|{=F}F2FF(3EFED2|"G"B,2B,B,B,2B,B,|!
A,-B,DB,D2DE|FEDE {E}F2 FF|A,-B,DB,D2 DE|DB,A,B,D2 DD|!
A,-B,DB,D2DE|FEDE {E}F2 FF|A,-B,DB,D2 DE|DB,A,B,D2 DD:|!
"A"{=c}c2[c2e2][c2e2][ce][ce]|[c2e2][A2f2][a2A2]AA|{=c}c2[c2e2][c2e2][Ae
][Af]|[Ag][Af][Ae][de] [ce][Be] [A2e2]|!
{=c}c2[c2e2][c2e2][ce][ce]|[A2f2][A2a2][[B3b3] b|[A2a2][A2f2][A2e2][Dd]B
|AF E2D4:|
